X:1262
T:Bazetan Dantza
O:Spain, Basque
M:4/4
L:1/8
Q:1/4=180
K:G
%%MIDI gchord zzfzzzfz
|:"G"defa g2d2|BdBG "C"c4|"G"BdBG "Am"AcAF| "G"G2 G2 G2 z2:|:
GAB2 BGc2|cAB2 BGc2|BdBG "Am"AcAF| "G"G2 G2 G2 z2:|:
G2d2d2e2|c2d2B2e2|c2d2B2e2|c2d2B2z2|c3dedcB|A2GFG2z2:|
